assets/usp.svg

<svg width="241" height="98" viewBox="0 0 241 98" fill="none" xmlns="http://www.w3.org/2000/svg">
<path d="M0.163523 79.455L0 0H78.1639V6.55299H45.4594V75.0318L39.082 74.8679L38.9184 6.55299H6.54091L6.57362 41.8409C6.57362 73.9178 6.63903 77.3581 7.1296 79.2912C7.42394 80.4707 8.20885 82.3056 8.83023 83.3541C9.45162 84.4025 10.8252 86.0408 11.8391 87.0237C12.8856 88.0067 14.6516 89.219 15.7636 89.7432C16.9083 90.2675 18.6089 90.8572 19.5246 91.0538C20.702 91.2832 28.1913 91.4142 42.3524 91.4142C56.5135 91.4142 64.0029 91.2832 65.1475 91.0538C66.0959 90.8572 67.8293 90.2347 69.0066 89.6777C70.4238 89.0224 71.852 87.9739 73.2909 86.5323C74.6972 85.1234 75.8092 83.6162 76.4633 82.2401C77.0193 81.0605 77.6734 78.9636 78.3275 75.0318H84.5413L84.9338 77.5547C85.1954 79.0946 85.7841 80.9622 86.4055 82.2401C86.9942 83.4196 88.2369 85.1889 89.1527 86.1718C90.1011 87.1548 91.7036 88.4982 92.7502 89.1207C93.7967 89.7432 95.6282 90.5296 96.8055 90.8245C98.7024 91.3159 101.286 91.3815 120.516 91.3815C139.747 91.3815 142.33 91.3159 144.227 90.8245C145.405 90.5296 147.236 89.7432 148.283 89.1207C149.329 88.4982 150.964 87.122 151.945 86.0736C152.927 85.0578 154.137 83.2885 154.66 82.1418C155.183 81.0277 155.772 79.324 155.968 78.3738C156.164 77.4564 156.328 73.6884 156.328 63.4002L118.227 25.229L122.806 20.6419L162.901 60.779L162.803 70.117L162.803 70.1753C162.673 79.3573 162.671 79.4933 161.757 82.0762C161.266 83.5179 160.449 85.4183 159.925 86.3357C159.402 87.2203 158.356 88.7275 157.571 89.6777C156.786 90.5951 155.445 91.9712 154.529 92.7248C153.646 93.4457 152.174 94.4941 151.259 95.0184C150.376 95.5426 148.25 96.4273 143.573 97.9672H97.6232L94.8433 97.1153C93.3061 96.6566 91.2458 95.8375 90.2646 95.2805C89.2835 94.7235 87.5828 93.5767 86.5036 92.7248C85.4243 91.8402 83.8872 90.2675 83.0696 89.1535C82.252 88.0722 81.5325 87.1876 81.4344 87.1876C81.3363 87.1876 80.6168 88.0722 79.7992 89.1535C78.9815 90.2675 77.4444 91.8402 76.3652 92.6921C75.2859 93.5767 73.7488 94.658 72.9312 95.1167C72.1136 95.5754 70.0859 96.4273 65.4091 97.9672H19.2957L16.2869 96.9515C14.6189 96.4273 12.5913 95.5754 11.7736 95.1167C10.956 94.658 9.45162 93.5767 8.40508 92.7576C7.35853 91.9385 5.85412 90.4313 5.10191 89.4483C4.317 88.4654 3.33587 86.991 2.8453 86.1718C2.38743 85.3527 1.60252 83.5179 0.163523 79.455Z" fill="#231F20"/>
<path d="M90.0684 2.98161C91.1476 2.35908 93.3061 1.44166 94.8106 0.950184L97.5904 0.0655299L143.54 0.032765L146.582 1.01571C148.25 1.57272 150.278 2.39184 151.062 2.88332C151.88 3.34203 153.417 4.42327 154.496 5.27516C155.576 6.12705 157.145 7.73253 157.93 8.81377C158.748 9.89502 159.5 10.8124 159.566 10.8124C159.664 10.8124 160.416 9.89502 161.201 8.81377C162.018 7.73253 163.556 6.12705 164.635 5.27516C165.714 4.42327 167.284 3.34203 168.069 2.88332C168.886 2.39184 170.914 1.57272 175.591 0.032765H221.704L224.746 1.01571C226.414 1.57272 228.441 2.39184 229.226 2.88332C230.044 3.34203 231.516 4.35774 232.497 5.11133C233.511 5.89769 234.982 7.37212 235.8 8.4206C236.618 9.46907 237.697 11.009 238.155 11.8281C238.613 12.6145 239.463 14.6459 241 19.3641V65.235H202.082V98H162.836V91.447H195.214V22.9682H202.082V58.682H234.459V40.006C234.459 27.6209 234.361 20.7402 234.099 19.5934C233.903 18.6433 233.282 16.9067 232.758 15.7599C232.083 14.3183 231.025 12.8876 229.586 11.4677C228.147 10.0261 226.719 8.96668 225.302 8.28953C224.157 7.73253 222.424 7.14276 221.475 6.94617C220.298 6.68405 212.809 6.58576 198.419 6.58576C179.45 6.61852 176.834 6.68405 174.937 7.17553C173.759 7.47041 171.928 8.22401 170.881 8.84654C169.835 9.50184 168.2 10.8452 167.218 11.8937C166.27 12.9422 165.027 14.7115 164.504 15.8255C163.948 16.9395 163.327 19.0037 162.673 22.9682H156.459L156.034 20.4126C155.805 19.0037 155.15 16.9067 154.595 15.7272C153.94 14.3511 152.828 12.8439 151.422 11.4677C149.983 10.0261 148.555 8.96668 147.138 8.28953C145.993 7.73253 144.26 7.14276 143.311 6.94617C142.167 6.68405 134.645 6.55299 120.484 6.55299C106.355 6.55299 98.8332 6.68405 97.6886 6.94617C96.7401 7.14276 95.0068 7.73253 93.8294 8.28953C92.4231 8.94483 90.9841 10.0261 89.5451 11.4677C88.3678 12.6473 86.9942 14.3838 86.5363 15.334C86.0457 16.2842 85.457 17.988 85.1627 19.102C84.8357 20.5764 84.7048 23.0665 84.6721 34.567L122.773 72.7382L118.194 77.3581L78.1312 37.1882V28.9315C78.1312 22.5095 78.262 20.1177 78.6545 18.2828C78.9488 16.9722 79.6683 14.8753 80.257 13.5975C80.8457 12.3524 82.0231 10.3865 82.9061 9.20695C83.7891 8.06018 85.3262 6.42193 86.3074 5.60281C87.3212 4.78368 88.9891 3.60415 90.0684 2.98161Z" fill="#231F20"/>
</svg>

<svg width="241" height="98" fill="none" xmlns="http://www.w3.org/2000/svg"><path d="M.164 79.455 0 0h78.164v6.553H45.459v68.479l-6.377-.164-.164-68.315H6.541l.033 35.288c0 32.077.065 35.517.556 37.45.294 1.18 1.079 3.015 1.7 4.063.622 1.049 1.995 2.687 3.01 3.67 1.046.983 2.812 2.195 3.924 2.72 1.144.523 2.845 1.113 3.76 1.31 1.178.23 8.667.36 22.828.36 14.162 0 21.65-.13 22.795-.36.949-.197 2.682-.82 3.86-1.376 1.417-.656 2.845-1.704 4.284-3.146 1.406-1.409 2.518-2.916 3.172-4.292.556-1.18 1.21-3.276 1.865-7.208h6.213l.393 2.523c.261 1.54.85 3.407 1.472 4.685.588 1.18 1.83 2.949 2.747 3.932.948.983 2.55 2.326 3.597 2.949 1.047.622 2.878 1.409 4.055 1.704 1.897.49 4.481.556 23.711.556 19.231 0 21.814-.065 23.711-.556 1.178-.295 3.009-1.082 4.056-1.704 1.046-.623 2.681-1.999 3.662-3.047.982-1.016 2.192-2.785 2.715-3.932.523-1.114 1.112-2.818 1.308-3.768.196-.918.36-4.686.36-14.974L118.227 25.23l4.579-4.587 40.095 40.137-.098 9.338v.058c-.13 9.182-.132 9.318-1.046 11.901-.491 1.442-1.308 3.342-1.832 4.26a31.561 31.561 0 0 1-2.354 3.342c-.785.917-2.126 2.293-3.042 3.047-.883.72-2.355 1.77-3.27 2.293-.883.525-3.009 1.41-7.686 2.95h-45.95l-2.78-.853c-1.537-.458-3.597-1.277-4.578-1.834-.981-.558-2.682-1.704-3.761-2.556-1.08-.885-2.617-2.457-3.434-3.572-.818-1.08-1.537-1.965-1.636-1.965-.098 0-.817.884-1.635 1.965-.818 1.114-2.355 2.687-3.434 3.54-1.08.884-2.616 1.965-3.434 2.424-.817.458-2.845 1.31-7.522 2.85H19.296l-3.01-1.016c-1.667-.524-3.695-1.376-4.512-1.834-.818-.459-2.322-1.54-3.369-2.36-1.046-.819-2.55-2.326-3.303-3.309-.785-.983-1.766-2.457-2.257-3.276-.458-.82-1.242-2.654-2.681-6.717Z" fill="#231F20"/><path d="M90.068 2.982c1.08-.623 3.238-1.54 4.743-2.032l2.78-.884L143.54.033l3.042.983c1.668.557 3.696 1.376 4.48 1.867.818.459 2.355 1.54 3.434 2.392 1.08.852 2.649 2.458 3.434 3.539.818 1.081 1.57 1.998 1.636 1.998.098 0 .85-.917 1.635-1.998.817-1.081 2.355-2.687 3.434-3.539 1.079-.852 2.649-1.933 3.434-2.392.817-.491 2.845-1.31 7.522-2.85h46.113l3.042.983c1.668.557 3.695 1.376 4.48 1.867.818.459 2.29 1.475 3.271 2.228 1.014.787 2.485 2.261 3.303 3.31.818 1.048 1.897 2.588 2.355 3.407.458.787 1.308 2.818 2.845 7.536v45.871h-38.918V98h-39.246v-6.553h32.378V22.968h6.868v35.714h32.377V40.006c0-12.385-.098-19.266-.36-20.413-.196-.95-.817-2.686-1.341-3.833-.675-1.442-1.733-2.872-3.172-4.292-1.439-1.442-2.867-2.501-4.284-3.178-1.145-.557-2.878-1.147-3.827-1.344-1.177-.262-8.666-.36-23.056-.36-18.969.033-21.585.098-23.482.59-1.178.294-3.009 1.048-4.056 1.67-1.046.656-2.681 2-3.663 3.048-.948 1.048-2.191 2.817-2.714 3.931-.556 1.114-1.177 3.179-1.831 7.143h-6.214l-.425-2.555c-.229-1.41-.884-3.506-1.439-4.686-.655-1.376-1.767-2.883-3.173-4.26-1.439-1.44-2.867-2.5-4.284-3.177-1.145-.557-2.878-1.147-3.827-1.344-1.144-.262-8.666-.393-22.827-.393-14.129 0-21.65.131-22.795.393-.949.197-2.682.787-3.86 1.344-1.406.655-2.845 1.736-4.284 3.178-1.177 1.18-2.55 2.916-3.009 3.866-.49.95-1.079 2.654-1.373 3.768-.327 1.474-.458 3.965-.49 15.465l38.1 38.171-4.579 4.62-40.063-40.17v-8.257c0-6.422.131-8.813.523-10.648.295-1.31 1.014-3.408 1.603-4.686.589-1.245 1.766-3.21 2.65-4.39.882-1.147 2.42-2.785 3.4-3.604 1.014-.82 2.682-1.999 3.761-2.621Z" fill="#231F20"/></svg>
